X: 39189
T: Swinging On The Gate
R: reel
M: 4/4
K: Gmajor
gedB [D2G2] AB|cABG AGEG|DGBd g2fg|eaag fdef|
gedB G2AB|ceBc AGEG|(3cBA BG AGEC|DEGA ~G3f:|
|:~g3a bd'ab|gfed BdAG|EA/A/AB cBAG|EAAB cdef|
gdga bd'ab|gfed B2AB|ceBG AGEC|DEGA G2Bd:|

